packages/sights/assets/overlays/e_QIW30o.svg

<svg width="500" height="375" viewBox="0 0 500 375" fill="none" xmlns="http://www.w3.org/2000/svg">
<path d="M474.5 89.4999C439.5 42.4999 398.5 42.4999 398.5 42.4999C273.5 25.4999 173.5 57.4999 173.5 57.4999L68.5002 98.4999L17.5002 118.5C6.50024 125.5 15.5002 133.5 15.5002 133.5C15.5002 133.5 7.50024 144.5 11.5002 156.5C11.5002 156.5 14.5002 167.5 19.5002 173.5C19.5002 173.5 7.50024 182.5 9.50024 198.5C9.50024 198.5 11.5002 208.5 14.5002 215.5V220.5C14.5002 220.5 37.5002 297.5 82.5002 319.5C82.5002 319.5 119.5 337.5 170.5 333.5L244.5 316.5L250 313.15C250 313.15 275.5 199.5 332.5 190.5C332.5 190.5 379.5 179.5 352.5 256.5L480.5 179.5C480.5 179.5 491.83 151.3 494.67 147.9" stroke="white" stroke-miterlimit="10"/>
<path d="M11 144C11 144 12.5 165.5 44.5 180.5C44.5 180.5 98.5 196.5 106.5 195.5L120.5 196.5L126.5 198.5L179.5 227.5C179.5 227.5 130.5 239.5 88.5 218.5C88.5 218.5 30.5 189.5 19.5 173.5" stroke="white" stroke-miterlimit="10"/>
<path d="M18.0596 230.91C18.0596 230.91 45.4996 285.5 91.4996 301.5C91.4996 301.5 168.26 329.04 182.38 330.77" stroke="white" stroke-miterlimit="10"/>
<path d="M89.1596 218.83C89.1596 218.83 83.4996 242.5 70.4996 247.5L49.4996 248.5C49.4996 248.5 9.50961 216.34 10.9996 185.42" stroke="white" stroke-miterlimit="10"/>
<path d="M25.3799 179.81V184C25.3799 184 40.4999 224.5 66.4999 236.5C66.4999 236.5 75.5799 240.67 79.4999 240.08" stroke="white" stroke-miterlimit="10"/>
<path d="M28.25 182.24V185.42C28.25 185.42 38.5 204.5 53.5 216.5L55.5 215.5L56.5 201.02" stroke="white" stroke-miterlimit="10"/>
<path d="M179.5 227.5L222.5 253.5H231.23L265.5 249.5L273.65 247.3" stroke="white" stroke-miterlimit="10"/>
<path d="M178.32 56.0799C178.32 56.0799 257.5 54.4999 289.5 67.4999C289.5 67.4999 202.5 109.5 161.5 135.5C161.5 135.5 77.5001 114.5 68.5001 104.5C68.5001 104.5 65.6601 100.66 69.5801 98.0799" stroke="white" stroke-miterlimit="10"/>
<path d="M473.5 92.4999C444.5 46.4999 394.5 49.4999 394.5 49.4999C336.5 50.4999 253.5 108.5 253.5 108.5C253.5 108.5 246.5 115.5 258.5 117.5C258.5 117.5 303.5 124.5 332.5 123.5L469.5 101.5" stroke="white" stroke-miterlimit="10"/>
<path d="M491.5 104.5C486.5 105.5 473.5 102.88 473.5 102.88C471.5 89.26 476.5 85.5 476.5 85.5C476.5 85.5 487.5 85.5 492.5 89.5" stroke="white" stroke-miterlimit="10"/>
<path d="M473 98C473 98 469.47 101.55 468.47 103.55L471.47 108.55L479.36 103.94" stroke="white" stroke-miterlimit="10"/>
<path d="M335.48 63.8799C335.48 63.8799 338.48 110.5 332.48 123.5C332.48 123.5 329.96 132.18 336.22 139.34C336.22 139.34 363.48 163.5 369.48 225.5L373.48 230.5H377.81L473.92 177.17C473.92 177.17 481.7 172.71 483.09 173.1" stroke="white" stroke-miterlimit="10"/>
<path d="M394.5 49.5C394.5 49.5 413.5 77.76 421.98 109.13C421.98 109.13 434.5 124.5 435.5 133.5C435.5 133.5 437.5 156.5 427.5 179.5V182.5C427.5 182.5 429.5 188.5 426.5 192.5L420.74 206.69" stroke="white" stroke-miterlimit="10"/>
<path d="M485.44 104.59C485.44 104.59 490.5 112.5 491.5 117.5V126.34C491.5 126.34 487.5 149.5 481.5 160.5V164.87L477 175.53" stroke="white" stroke-miterlimit="10"/>
<path d="M359.5 152.5L360.5 151.5L365.5 149.5L367.5 150.5C367.5 150.5 370.5 152.5 373.5 151.5L379.5 149.5L380.5 148.5L377.5 145.5L381.5 144.5L384.94 148.5V152.5L382.5 154.5L363.5 159.5L359.5 157.07C358.941 155.598 358.941 153.972 359.5 152.5Z" stroke="white" stroke-miterlimit="10"/>
<path d="M441.5 127.5L444.5 128.5H446.5L449.98 127.5L448.5 125.5H451.5L453.5 127.5V130.5C453.5 130.5 442.5 134.5 440.5 134.5L438.5 133.5L437.5 131.5V128.5L441.5 127.5Z" stroke="white" stroke-miterlimit="10"/>
<path d="M326.2 192C335.9 194.45 345.95 202 345.95 202C362.5 214.58 361.63 247.72 342.04 281.65C322.74 315.08 293.33 334.36 275.8 325.3L251.71 306.43" stroke="white" stroke-miterlimit="10"/>
<path d="M472.39 184.38L485.5 188.5C485.5 188.5 492 188.1 492.75 185.8" stroke="white" stroke-miterlimit="10"/>
</svg>

<svg width="500" height="375" fill="none" xmlns="http://www.w3.org/2000/svg"><path d="M474.5 89.5c-35-47-76-47-76-47-125-17-225 15-225 15l-105 41-51 20c-11 7-2 15-2 15s-8 11-4 23c0 0 3 11 8 17 0 0-12 9-10 25 0 0 2 10 5 17v5s23 77 68 99c0 0 37 18 88 14l74-17 5.5-3.35s25.5-113.65 82.5-122.65c0 0 47-11 20 66l128-77s11.33-28.2 14.17-31.6" stroke="#fff" stroke-miterlimit="10"/><path d="M11 144s1.5 21.5 33.5 36.5c0 0 54 16 62 15l14 1 6 2 53 29s-49 12-91-9c0 0-58-29-69-45M18.06 230.91S45.5 285.5 91.5 301.5c0 0 76.76 27.54 90.88 29.27M89.16 218.83S83.5 242.5 70.5 247.5l-21 1S9.51 216.34 11 185.42" stroke="#fff" stroke-miterlimit="10"/><path d="M25.38 179.81V184s15.12 40.5 41.12 52.5c0 0 9.08 4.17 13 3.58" stroke="#fff" stroke-miterlimit="10"/><path d="M28.25 182.24v3.18S38.5 204.5 53.5 216.5l2-1 1-14.48M179.5 227.5l43 26h8.73l34.27-4 8.15-2.2M178.32 56.08S257.5 54.5 289.5 67.5c0 0-87 42-128 68 0 0-84-21-93-31 0 0-2.84-3.84 1.08-6.42M473.5 92.5c-29-46-79-43-79-43-58 1-141 59-141 59s-7 7 5 9c0 0 45 7 74 6l137-22" stroke="#fff" stroke-miterlimit="10"/><path d="M491.5 104.5c-5 1-18-1.62-18-1.62-2-13.62 3-17.38 3-17.38s11 0 16 4" stroke="#fff" stroke-miterlimit="10"/><path d="M473 98s-3.53 3.55-4.53 5.55l3 5 7.89-4.61M335.48 63.88s3 46.62-3 59.62c0 0-2.52 8.68 3.74 15.84 0 0 27.26 24.16 33.26 86.16l4 5h4.33l96.11-53.33s7.78-4.46 9.17-4.07" stroke="#fff" stroke-miterlimit="10"/><path d="M394.5 49.5s19 28.26 27.48 59.63c0 0 12.52 15.37 13.52 24.37 0 0 2 23-8 46v3s2 6-1 10l-5.76 14.19M485.44 104.59s5.06 7.91 6.06 12.91v8.84s-4 23.16-10 34.16v4.37l-4.5 10.66M359.5 152.5l1-1 5-2 2 1s3 2 6 1l6-2 1-1-3-3 4-1 3.44 4v4l-2.44 2-19 5-4-2.43a6.436 6.436 0 0 1 0-4.57ZM441.5 127.5l3 1h2l3.48-1-1.48-2h3l2 2v3s-11 4-13 4l-2-1-1-2v-3l4-1ZM326.2 192c9.7 2.45 19.75 10 19.75 10 16.55 12.58 15.68 45.72-3.91 79.65-19.3 33.43-48.71 52.71-66.24 43.65l-24.09-18.87M472.39 184.38l13.11 4.12s6.5-.4 7.25-2.7" stroke="#fff" stroke-miterlimit="10"/></svg>
